X:1
T:I Will Sing the Wondrous Story
T:I Will Sing the Wondrous Story
T:Peter Phillip Bilhorn
T:Francis Harold Rowley, 1886
T:Public Domain Courtesy of the Cyber Hymnal™
T:Public Domain Courtesy of the Cyber Hymnal™
C:Peter Phillip Bilhorn
Z:Public Domain
Z:Courtesy of the Cyber Hymnal™
%%score ( 1 2 ) ( 3 4 )
L:1/8
Q:1/4=105
M:3/4
K:Eb
V:1 treble 
V:2 treble 
V:3 bass 
V:4 bass 
V:1
 [EG]>[FA] | [GB]3 [GB] [Ac]>[GB] | [Ge]2 [GB]2 [GB]>[GB] | [AB]3 [AB] [Ac]>[AB] | %4
w: 1.~I will|sing the wond- rous|sto- ry Of the|Christ who died for|
w: 2.~I was|lost, but Je- sus|found me, Found the|sheep that went a-|
w: 3.~I was|bruised, but Je- sus|healed me, Faint was|I from many a|
w: 4.~Days of|dark- ness still come|o’er me, Sor- row’s|path I oft- en|
w: 5.~He will|keep me till the|riv- er Rolls its|wa- ters at my|
 [GB]4 [EG]>[FA] | [GB]3 [GB] [Ac]>[GB] | [Ge]2 [GB]2 [GB]>[Ge] | [Fd]3 [DB] [DA]>[DF] | E4 || %9
w: me. How He|left His home in|glo- ry For the|cross of Cal- va-|ry.|
w: stray, Threw His|lov- ing arms a-|round me, Drew me|back in- to His|way.|
w: fall, Sight was|gone, and fears pos-|sessed me, But He|freed me from them|all.|
w: tread, But the|Sav- ior still is|with me; By His|hand I’m safe- ly|led.|
w: feet; Then He’ll|bear me safe- ly|o- ver, Where the|loved ones I shall|meet.|
"^Refrain" (3(B[=Ac])[_Ad] | [Ge]4- [Ge]>[Ge][Bd]>[Ac] | [GB]4 [EG]2 [GB]>[GB] | %12
w: |||
w: |||
w: Yes, * I’ll|sing * the wond- rous|sto- ry Of the|
w: |||
w: |||
 B4- [AB]>[AB][Ac]>[AB] | B4- [GB] z (B[=Ac])[_Ad] | [Ge]4- [Ge]>[Ge][Bd]>[Ac] | %15
w: |||
w: |||
w: Christ who died for me,|* Sing it * with|* * the saints in|
w: |||
w: |||
 [GB]4 [EG]2 [GB]>[Ge] | [Fd]4- [Fd]>[DB][DA]>[DF] | E4- !fermata![B,E]2 |] %18
w: |||
w: |||
w: glo- ry, Ga- thered|by * the crys- tal|sea. *|
w: |||
w: |||
V:2
 x2 | x6 | x6 | x6 | x6 | x6 | x6 | x6 | E4 || x2 | x8 | x8 | A2 A3/2 A/ x4 | G3/2 G/ G3/2 G/ x5 | %14
 x8 | x8 | x8 | B,>B, C>C x2 |] %18
V:3
 [E,B,]>[E,B,] | [E,E]3 [E,E] [E,E]>[E,E] | [E,B,]2 [E,E]2 [E,E]>[E,E] | %3
 [F,D]3 [F,D] [B,,D]>[B,,D] | [E,E]4 [E,B,]>[E,B,] | [E,E]3 [E,E] [E,E]>[E,E] | %6
 [E,B,]2 [E,E]2 [E,E]>[E,B,] | [B,,B,]3 [B,,B,] [B,,F,]>[B,,A,] | [E,G,]4 || z2 | %10
 z2 ([E,B,]>[E,B,] [E,B,]3/2) z/ z2 | z3/2 ([E,E]<[E,E][E,E]/) [E,B,]>[E,B,] z2 | %12
 ([B,,D]>[B,,D] [B,,D]3/2) z/ z2 z2 | z3/2 ([E,E]<[E,E][E,E]/ [E,E]2) z3 | %14
 z2 ([E,B,]>[E,B,] [E,B,]3/2) z/ z2 | z3/2 ([E,E]<[E,E][E,E]/) ([E,B,]>[E,B,]) z2 | %16
 z2 ([B,,B,]>[B,,B,] [B,,B,]>)[B,,B,][A,,F,]>[A,,A,] | (G,>G,A,>A, !fermata![E,G,]2) |] %18
V:4
 x2 | x6 | x6 | x6 | x6 | x6 | x6 | x6 | x4 || x2 | x8 | x8 | x8 | x9 | x8 | x8 | x8 | E,4- x2 |] %18

